X:51
T:Tommy's On The Tops'l Yard
M:C|
L:1/8
Q:1/4=120
K:C
G2|\
E2G2 c2(ed)|c2G2(E2G2)|(c4 d3c)|e2d2 c2e2|
d2B2 c2(AB)|c3A (GEC2)|GGGG A2B2|c6||
